public/img/svg/facebook.svg

<!-- Generated by IcoMoon.io -->
<svg version="1.1" xmlns="http://www.w3.org/2000/svg" width="17" height="32" viewBox="0 0 17 32">
<title>facebook</title>
<path d="M13.848 5.314h3.093v-5.088c-1.309-0.144-2.828-0.226-4.366-0.226-0.049 0-0.099 0-0.148 0l0.008-0c-4.459 0-7.514 2.648-7.514 7.518v4.482h-4.92v5.688h4.92v14.312h6.035v-14.312h4.721l0.749-5.687h-5.47v-3.919c0-1.643 0.471-2.769 2.895-2.769z"></path>
</svg>

<svg xmlns="http://www.w3.org/2000/svg" width="17" height="32" viewBox="0 0 17 32"><path d="M13.848 5.314h3.093V.226A40.903 40.903 0 0012.575 0h-.148.008C7.976 0 4.921 2.648 4.921 7.518V12H.001v5.688h4.92V32h6.035V17.688h4.721l.749-5.687h-5.47V8.082c0-1.643.471-2.769 2.895-2.769z"/></svg>
